TH2/cjust.svg

<svg xmlns="http://www.w3.org/2000/svg" viewBox="0 0 1200 800" preserveAspectRatio="none" width="1200" height="800">
 <path d="M0,0H1200V800H0Z" style="fill: white;"></path>
 <g>
  <g transform="translate(120,80)">
   <path d="M0,0H924V640H0Z" style="fill: white; stroke: black; stroke-width: 1;"></path>
   <svg x="0" y="0" overflow="hidden" width="924" height="640" viewBox="0 0 924 640">
    <g>
     <path fill="#1272d9" d="M23,256h23v32h-23zm0,64h23v16h-23zM46,208h23v16h-23zm0,32h23v48h-23zm0,80h23v16h-23zm0,144h23v16h-23zM69,176h23v16h-23zm0,160h23v112h-23zM92,160h24v16h-24zm0,64h24v64h-24zm0,80h24v16h-24zm0,32h24v16h-24zm0,32h24v16h-24zm0,48h24v16h-24zM116,80h23v16h-23zm0,112h23v16h-23zm0,32h23v128h-23zm0,144h23v48h-23zm0,64h23v16h-23zm0,32h23v16h-23zm0,32h23v16h-23zm0,112h23v16h-23zM139,144h23v16h-23zm0,32h23v288h-23zm0,304h23v32h-23zM162,96h23v16h-23zm0,32h23v48h-23zm0,64h23v320h-23zM185,80h23v16h-23zm0,48h23v16h-23zm0,48h23v304h-23zM208,96h23v16h-23zm0,48h23v208h-23zm0,224h23v128h-23zm0,144h23v16h-23zM231,64h23v16h-23zm0,64h23v112h-23zm0,128h23v16h-23zm0,128h23v128h-23zm0,144h23v48h-23zM254,96h23v16h-23zm0,32h23v96h-23zm0,288h23v128h-23zM277,96h23v112h-23zm0,336h23v96h-23zm0,112h23v32h-23zM300,0h23v16h-23zm0,48h23v16h-23zm0,32h23v128h-23zm0,352h23v144h-23zM323,16h24v32h-24zm0,64h24v96h-24zm0,384h24v64h-24zm0,80h24v16h-24zm0,48h24v16h-24zM347,80h23v96h-23zm0,384h23v128h-23zM370,80h23v96h-23zm0,400h23v64h-23zm0,112h23v16h-23zM393,48h23v16h-23zm0,32h23v96h-23zm0,400h23v80h-23zm0,96h23v16h-23zM416,32h23v32h-23zm0,48h23v80h-23zm0,416h23v64h-23zM439,0h23v16h-23zm0,32h23v16h-23zm0,32h23v96h-23zm0,432h23v48h-23zm0,64h23v16h-23zm0,32h23v16h-23zM462,32h23v48h-23zm0,64h23v48h-23zm0,64h23v16h-23zm0,336h23v64h-23zM485,48h23v96h-23zm0,432h23v48h-23zm0,64h23v32h-23zM508,48h23v16h-23zm0,32h23v80h-23zm0,400h23v80h-23zM531,64h23v32h-23zm0,48h23v48h-23zm0,368h23v64h-23zM554,64h24v16h-24zm0,32h24v80h-24zm0,384h24v80h-24zm0,96h24v16h-24zM578,48h23v144h-23zm0,416h23v128h-23zM601,48h23v160h-23zm0,400h23v112h-23zM624,112h23v96h-23zm0,320h23v112h-23zM647,96h23v128h-23zm0,304h23v128h-23zm0,160h23v16h-23zm0,32h23v16h-23zM670,80h23v32h-23zm0,48h23v128h-23zm0,144h23v48h-23zm0,128h23v96h-23zm0,112h23v48h-23zM693,32h23v16h-23zm0,96h23v208h-23zm0,224h23v16h-23zm0,32h23v96h-23zm0,112h23v32h-23zM716,112h23v16h-23zm0,32h23v64h-23zm0,80h23v256h-23zm0,304h23v16h-23zM739,96h23v16h-23zm0,32h23v336h-23zm0,368h23v16h-23zM762,144h23v80h-23zm0,96h23v192h-23zm0,208h23v16h-23zM785,224h24v32h-24zm0,48h24v176h-24zm24,-64h23v16h-23zm0,48h23v16h-23zm0,32h23v80h-23zm0,96h23v32h-23zM832,224h23v16h-23zm0,32h23v128h-23zm0,144h23v16h-23zm0,32h23v16h-23zm0,64h23v16h-23zM855,256h23v32h-23zm0,48h23v16h-23zm0,48h23v32h-23zm0,48h23v16h-23zm23,-96h23v32h-23z"></path>
     <path fill="#0da7c3" d="M208,352h23v16h-23zM231,240h23v16h-23zm0,32h23v112h-23zm23,-48h23v64h-23zm0,80h23v64h-23zm0,80h23v32h-23zM277,208h23v48h-23zm0,192h23v32h-23zM300,208h23v32h-23zm0,208h23v16h-23zM323,176h24v32h-24zm0,256h24v32h-24zM347,176h23v32h-23zm0,240h23v48h-23zM370,176h23v32h-23zm0,256h23v48h-23zM393,176h23v16h-23zm0,288h23v16h-23zM416,160h23v32h-23zm0,288h23v48h-23zM439,160h23v16h-23zm0,288h23v48h-23zM462,144h23v16h-23zm0,320h23v32h-23zM485,144h23v32h-23zm0,304h23v32h-23zM508,160h23v32h-23zm0,304h23v16h-23zM531,160h23v48h-23zm0,272h23v48h-23zM554,176h24v32h-24zm0,272h24v32h-24zM578,192h23v32h-23zm0,240h23v32h-23zM601,208h23v16h-23zm0,192h23v48h-23zM624,208h23v48h-23zm0,176h23v48h-23zM647,224h23v64h-23zm0,80h23v16h-23zm0,32h23v64h-23zm23,-80h23v16h-23zm0,64h23v80h-23zm23,16h23v16h-23zm0,32h23v16h-23z"></path>
     <path fill="#74bd81" d="M254,288h23v16h-23zm0,80h23v16h-23zM277,256h23v144h-23zm23,-16h23v176h-23zm23,-32h24v64h-24zm0,80h24v32h-24zm0,64h24v80h-24zM347,208h23v64h-23zm0,192h23v16h-23zM370,208h23v32h-23zm0,176h23v48h-23zM393,192h23v48h-23zm0,208h23v64h-23zM416,192h23v32h-23zm0,224h23v32h-23zM439,176h23v32h-23zm0,48h23v16h-23zm0,192h23v32h-23zM462,176h23v48h-23zm0,240h23v48h-23zM485,176h23v48h-23zm0,224h23v48h-23zM508,192h23v48h-23zm0,192h23v16h-23zm0,32h23v48h-23zM531,208h23v32h-23zm0,192h23v32h-23zM554,208h24v48h-24zm0,160h24v80h-24zM578,224h23v80h-23zm0,144h23v64h-23zM601,224h23v176h-23zm23,32h23v128h-23zm23,32h23v16h-23zm0,32h23v16h-23z"></path>
     <path fill="#e2c04b" d="M323,272h24v16h-24zm0,48h24v32h-24zm24,-48h23v32h-23zm0,48h23v80h-23zm23,-80h23v32h-23zm0,64h23v80h-23zm23,-64h23v48h-23zm0,128h23v32h-23zM416,224h23v48h-23zm0,144h23v48h-23zM439,208h23v16h-23zm0,32h23v32h-23zm0,144h23v32h-23zM462,224h23v32h-23zm0,144h23v48h-23zM485,224h23v32h-23zm0,160h23v16h-23zM508,240h23v32h-23zm0,112h23v32h-23zm0,48h23v16h-23zM531,240h23v64h-23zm0,96h23v64h-23zm23,-80h24v112h-24zm24,48h23v64h-23z"></path>
     <path fill="#f9f90f" d="M347,304h23v16h-23zm23,-32h23v32h-23zm23,16h23v80h-23zm23,-16h23v96h-23zm23,0h23v112h-23zm23,-16h23v112h-23zm23,0h23v128h-23zm23,16h23v80h-23zm23,32h23v32h-23z"></path>
    </g>
   </svg>
   <g>
    <g transform="translate(0,640)">
     <path d="M0,0h924M0,-24v24m23,-12v12m23,-12v12m23,-12v12m23,-12v12m24,-24v24m23,-12v12m23,-12v12m23,-12v12m23,-12v12m23,-24v24m23,-12v12m23,-12v12m23,-12v12m23,-12v12m24,-24v24m23,-12v12m23,-12v12m23,-12v12m23,-12v12m23,-24v24m23,-12v12m23,-12v12m23,-12v12m23,-12v12m24,-24v24m23,-12v12m23,-12v12m23,-12v12m23,-12v12m23,-24v24m23,-12v12m23,-12v12m23,-12v12m23,-12v12m24,-24v24m23,-12v12m23,-12v12m23,-12v12m23,-12v12m23,-24v24" style="stroke: black; stroke-width: 1;"></path>
     <g font-family="Arial" font-size="28" space="preserve" fill="black" text-anchor="middle">
      <text dy=".8em" transform="translate(0,6)">
       -4
      </text>
      <text dy=".8em" transform="translate(116,6)">
       -3
      </text>
      <text dy=".8em" transform="translate(231,6)">
       -2
      </text>
      <text dy=".8em" transform="translate(347,6)">
       -1
      </text>
      <text dy=".8em" transform="translate(462,6)">
       0
      </text>
      <text dy=".8em" transform="translate(578,6)">
       1
      </text>
      <text dy=".8em" transform="translate(693,6)">
       2
      </text>
      <text dy=".8em" transform="translate(809,6)">
       3
      </text>
      <text dy=".8em" transform="translate(924,6)">
       4
      </text>
     </g>
    </g>
    <g>
     <path d="M0,0v640M36,640h-36m18,-16h-18m18,-16h-18m18,-16h-18m18,-16h-18m36,-16h-36m18,-16h-18m18,-16h-18m18,-16h-18m18,-16h-18m36,-16h-36m18,-16h-18m18,-16h-18m18,-16h-18m18,-16h-18m36,-16h-36m18,-16h-18m18,-16h-18m18,-16h-18m18,-16h-18m36,-16h-36m18,-16h-18m18,-16h-18m18,-16h-18m18,-16h-18m36,-16h-36m18,-16h-18m18,-16h-18m18,-16h-18m18,-16h-18m36,-16h-36m18,-16h-18m18,-16h-18m18,-16h-18m18,-16h-18m36,-16h-36m18,-16h-18m18,-16h-18m18,-16h-18m18,-16h-18m36,-16h-36" style="stroke: black; stroke-width: 1;"></path>
     <g font-family="Arial" font-size="28" space="preserve" fill="black" text-anchor="end">
      <text dy=".4em" transform="translate(-4,640)">
       -4
      </text>
      <text dy=".4em" transform="translate(-4,560)">
       -3
      </text>
      <text dy=".4em" transform="translate(-4,480)">
       -2
      </text>
      <text dy=".4em" transform="translate(-4,400)">
       -1
      </text>
      <text dy=".4em" transform="translate(-4,320)">
       0
      </text>
      <text dy=".4em" transform="translate(-4,240)">
       1
      </text>
      <text dy=".4em" transform="translate(-4,160)">
       2
      </text>
      <text dy=".4em" transform="translate(-4,80)">
       3
      </text>
      <text dy=".4em" transform="translate(-4)">
       4
      </text>
     </g>
    </g>
   </g>
  </g>
  <g transform="translate(1050,80)">
   <path d="M0,0H54V640H0Z" style="fill: none; stroke: black; stroke-width: 1;"></path>
   <path d="M0,576H54V640H0Z" style="fill: #1272d9;"></path>
   <path d="M0,512H54V577H0Z" style="fill: #0da7c3;"></path>
   <path d="M0,384H54V513H0Z" style="fill: #74bd81;"></path>
   <path d="M0,256H54V385H0Z" style="fill: #e2c04b;"></path>
   <path d="M0,0H54V257H0Z" style="fill: #f9f90f;"></path>
   <g transform="translate(54)">
    <path d="M0,0v640M0,640h-33m33,-64h-33m33,-64h-33m33,-128h-33m33,-128h-33m33,-256h-33" style="stroke: black; stroke-width: 1;"></path>
    <g font-family="Arial" font-size="28" space="preserve" fill="black" text-anchor="start">
     <text dy=".4em" transform="translate(8,640)">
      0
     </text>
     <text dy=".4em" transform="translate(8,576)">
      20
     </text>
     <text dy=".4em" transform="translate(8,512)">
      40
     </text>
     <text dy=".4em" transform="translate(8,384)">
      80
     </text>
     <text dy=".4em" transform="translate(8,256)">
      120
     </text>
     <text dy=".4em" transform="translate(8)">
      200
     </text>
    </g>
   </g>
  </g>
  <g transform="translate(283,4)" font-family="Arial" font-size="40" space="preserve">
   <text fill="black" text-anchor="middle" dy=".4em" transform="translate(317,25)">
    User contours, CJUST
   </text>
  </g>
 </g>
</svg>

<svg xmlns="http://www.w3.org/2000/svg" viewBox="0 0 1200 800" preserveAspectRatio="none" width="1200" height="800">
 <path d="M0,0H1200V800H0Z" style="fill: white;"></path>
 <g>
  <g transform="translate(120,80)">
   <path d="M0,0H924V640H0Z" style="fill: white; stroke: black; stroke-width: 1;"></path>
   <svg x="0" y="0" overflow="hidden" width="924" height="640" viewBox="0 0 924 640">
    <g>
     <path fill="#1272d9" d="M23,256h23v32h-23zm0,64h23v16h-23zM46,208h23v16h-23zm0,32h23v48h-23zm0,80h23v16h-23zm0,144h23v16h-23zM69,176h23v16h-23zm0,160h23v112h-23zM92,160h24v16h-24zm0,64h24v64h-24zm0,80h24v16h-24zm0,32h24v16h-24zm0,32h24v16h-24zm0,48h24v16h-24zM116,80h23v16h-23zm0,112h23v16h-23zm0,32h23v128h-23zm0,144h23v48h-23zm0,64h23v16h-23zm0,32h23v16h-23zm0,32h23v16h-23zm0,112h23v16h-23zM139,144h23v16h-23zm0,32h23v288h-23zm0,304h23v32h-23zM162,96h23v16h-23zm0,32h23v48h-23zm0,64h23v320h-23zM185,80h23v16h-23zm0,48h23v16h-23zm0,48h23v304h-23zM208,96h23v16h-23zm0,48h23v208h-23zm0,224h23v128h-23zm0,144h23v16h-23zM231,64h23v16h-23zm0,64h23v112h-23zm0,128h23v16h-23zm0,128h23v128h-23zm0,144h23v48h-23zM254,96h23v16h-23zm0,32h23v96h-23zm0,288h23v128h-23zM277,96h23v112h-23zm0,336h23v96h-23zm0,112h23v32h-23zM300,0h23v16h-23zm0,48h23v16h-23zm0,32h23v128h-23zm0,352h23v144h-23zM323,16h24v32h-24zm0,64h24v96h-24zm0,384h24v64h-24zm0,80h24v16h-24zm0,48h24v16h-24zM347,80h23v96h-23zm0,384h23v128h-23zM370,80h23v96h-23zm0,400h23v64h-23zm0,112h23v16h-23zM393,48h23v16h-23zm0,32h23v96h-23zm0,400h23v80h-23zm0,96h23v16h-23zM416,32h23v32h-23zm0,48h23v80h-23zm0,416h23v64h-23zM439,0h23v16h-23zm0,32h23v16h-23zm0,32h23v96h-23zm0,432h23v48h-23zm0,64h23v16h-23zm0,32h23v16h-23zM462,32h23v48h-23zm0,64h23v48h-23zm0,64h23v16h-23zm0,336h23v64h-23zM485,48h23v96h-23zm0,432h23v48h-23zm0,64h23v32h-23zM508,48h23v16h-23zm0,32h23v80h-23zm0,400h23v80h-23zM531,64h23v32h-23zm0,48h23v48h-23zm0,368h23v64h-23zM554,64h24v16h-24zm0,32h24v80h-24zm0,384h24v80h-24zm0,96h24v16h-24zM578,48h23v144h-23zm0,416h23v128h-23zM601,48h23v160h-23zm0,400h23v112h-23zM624,112h23v96h-23zm0,320h23v112h-23zM647,96h23v128h-23zm0,304h23v128h-23zm0,160h23v16h-23zm0,32h23v16h-23zM670,80h23v32h-23zm0,48h23v128h-23zm0,144h23v48h-23zm0,128h23v96h-23zm0,112h23v48h-23zM693,32h23v16h-23zm0,96h23v208h-23zm0,224h23v16h-23zm0,32h23v96h-23zm0,112h23v32h-23zM716,112h23v16h-23zm0,32h23v64h-23zm0,80h23v256h-23zm0,304h23v16h-23zM739,96h23v16h-23zm0,32h23v336h-23zm0,368h23v16h-23zM762,144h23v80h-23zm0,96h23v192h-23zm0,208h23v16h-23zM785,224h24v32h-24zm0,48h24v176h-24zm24,-64h23v16h-23zm0,48h23v16h-23zm0,32h23v80h-23zm0,96h23v32h-23zM832,224h23v16h-23zm0,32h23v128h-23zm0,144h23v16h-23zm0,32h23v16h-23zm0,64h23v16h-23zM855,256h23v32h-23zm0,48h23v16h-23zm0,48h23v32h-23zm0,48h23v16h-23zm23,-96h23v32h-23z"></path>
     <path fill="#0da7c3" d="M208,352h23v16h-23zM231,240h23v16h-23zm0,32h23v112h-23zm23,-48h23v64h-23zm0,80h23v64h-23zm0,80h23v32h-23zM277,208h23v48h-23zm0,192h23v32h-23zM300,208h23v32h-23zm0,208h23v16h-23zM323,176h24v32h-24zm0,256h24v32h-24zM347,176h23v32h-23zm0,240h23v48h-23zM370,176h23v32h-23zm0,256h23v48h-23zM393,176h23v16h-23zm0,288h23v16h-23zM416,160h23v32h-23zm0,288h23v48h-23zM439,160h23v16h-23zm0,288h23v48h-23zM462,144h23v16h-23zm0,320h23v32h-23zM485,144h23v32h-23zm0,304h23v32h-23zM508,160h23v32h-23zm0,304h23v16h-23zM531,160h23v48h-23zm0,272h23v48h-23zM554,176h24v32h-24zm0,272h24v32h-24zM578,192h23v32h-23zm0,240h23v32h-23zM601,208h23v16h-23zm0,192h23v48h-23zM624,208h23v48h-23zm0,176h23v48h-23zM647,224h23v64h-23zm0,80h23v16h-23zm0,32h23v64h-23zm23,-80h23v16h-23zm0,64h23v80h-23zm23,16h23v16h-23zm0,32h23v16h-23z"></path>
     <path fill="#74bd81" d="M254,288h23v16h-23zm0,80h23v16h-23zM277,256h23v144h-23zm23,-16h23v176h-23zm23,-32h24v64h-24zm0,80h24v32h-24zm0,64h24v80h-24zM347,208h23v64h-23zm0,192h23v16h-23zM370,208h23v32h-23zm0,176h23v48h-23zM393,192h23v48h-23zm0,208h23v64h-23zM416,192h23v32h-23zm0,224h23v32h-23zM439,176h23v32h-23zm0,48h23v16h-23zm0,192h23v32h-23zM462,176h23v48h-23zm0,240h23v48h-23zM485,176h23v48h-23zm0,224h23v48h-23zM508,192h23v48h-23zm0,192h23v16h-23zm0,32h23v48h-23zM531,208h23v32h-23zm0,192h23v32h-23zM554,208h24v48h-24zm0,160h24v80h-24zM578,224h23v80h-23zm0,144h23v64h-23zM601,224h23v176h-23zm23,32h23v128h-23zm23,32h23v16h-23zm0,32h23v16h-23z"></path>
     <path fill="#e2c04b" d="M323,272h24v16h-24zm0,48h24v32h-24zm24,-48h23v32h-23zm0,48h23v80h-23zm23,-80h23v32h-23zm0,64h23v80h-23zm23,-64h23v48h-23zm0,128h23v32h-23zM416,224h23v48h-23zm0,144h23v48h-23zM439,208h23v16h-23zm0,32h23v32h-23zm0,144h23v32h-23zM462,224h23v32h-23zm0,144h23v48h-23zM485,224h23v32h-23zm0,160h23v16h-23zM508,240h23v32h-23zm0,112h23v32h-23zm0,48h23v16h-23zM531,240h23v64h-23zm0,96h23v64h-23zm23,-80h24v112h-24zm24,48h23v64h-23z"></path>
     <path fill="#f9f90f" d="M347,304h23v16h-23zm23,-32h23v32h-23zm23,16h23v80h-23zm23,-16h23v96h-23zm23,0h23v112h-23zm23,-16h23v112h-23zm23,0h23v128h-23zm23,16h23v80h-23zm23,32h23v32h-23z"></path>
    </g>
   </svg>
   <g>
    <g transform="translate(0,640)">
     <path d="M0,0h924M0,-24V0M23,-12V0M46,-12V0M69,-12V0M92,-12V0M116,-24V0M139,-12V0M162,-12V0M185,-12V0M208,-12V0M231,-24V0M254,-12V0M277,-12V0M300,-12V0M323,-12V0M347,-24V0M370,-12V0M393,-12V0M416,-12V0M439,-12V0M462,-24V0M485,-12V0M508,-12V0M531,-12V0M554,-12V0M578,-24V0M601,-12V0M624,-12V0M647,-12V0M670,-12V0M693,-24V0M716,-12V0M739,-12V0M762,-12V0M785,-12V0M809,-24V0M832,-12V0M855,-12V0M878,-12V0M901,-12V0M924,-24V0" style="stroke: black; stroke-width: 1;"></path>
     <g font-family="Arial" font-size="28" space="preserve" fill="black" text-anchor="middle">
      <text dy=".8em" transform="translate(0,6)">
       -4
      </text>
      <text dy=".8em" transform="translate(116,6)">
       -3
      </text>
      <text dy=".8em" transform="translate(231,6)">
       -2
      </text>
      <text dy=".8em" transform="translate(347,6)">
       -1
      </text>
      <text dy=".8em" transform="translate(462,6)">
       0
      </text>
      <text dy=".8em" transform="translate(578,6)">
       1
      </text>
      <text dy=".8em" transform="translate(693,6)">
       2
      </text>
      <text dy=".8em" transform="translate(809,6)">
       3
      </text>
      <text dy=".8em" transform="translate(924,6)">
       4
      </text>
     </g>
    </g>
    <g>
     <path d="M0,0v640M36,640H0M18,624H0M18,608H0M18,592H0M18,576H0M36,560H0M18,544H0M18,528H0M18,512H0M18,496H0M36,480H0M18,464H0M18,448H0M18,432H0M18,416H0M36,400H0M18,384H0M18,368H0M18,352H0M18,336H0M36,320H0M18,304H0M18,288H0M18,272H0M18,256H0M36,240H0M18,224H0M18,208H0M18,192H0M18,176H0M36,160H0M18,144H0M18,128H0M18,112H0M18,96H0M36,80H0M18,64H0M18,48H0M18,32H0M18,16H0M36,0H0" style="stroke: black; stroke-width: 1;"></path>
     <g font-family="Arial" font-size="28" space="preserve" fill="black" text-anchor="end">
      <text dy=".4em" transform="translate(-4,640)">
       -4
      </text>
      <text dy=".4em" transform="translate(-4,560)">
       -3
      </text>
      <text dy=".4em" transform="translate(-4,480)">
       -2
      </text>
      <text dy=".4em" transform="translate(-4,400)">
       -1
      </text>
      <text dy=".4em" transform="translate(-4,320)">
       0
      </text>
      <text dy=".4em" transform="translate(-4,240)">
       1
      </text>
      <text dy=".4em" transform="translate(-4,160)">
       2
      </text>
      <text dy=".4em" transform="translate(-4,80)">
       3
      </text>
      <text dy=".4em" transform="translate(-4)">
       4
      </text>
     </g>
    </g>
   </g>
  </g>
  <g transform="translate(1050,80)">
   <path d="M0,0H54V640H0Z" style="fill: none; stroke: black; stroke-width: 1;"></path>
   <path d="M0,576H54V640H0Z" style="fill: #1272d9;"></path>
   <path d="M0,512H54V577H0Z" style="fill: #0da7c3;"></path>
   <path d="M0,384H54V513H0Z" style="fill: #74bd81;"></path>
   <path d="M0,256H54V385H0Z" style="fill: #e2c04b;"></path>
   <path d="M0,0H54V257H0Z" style="fill: #f9f90f;"></path>
   <g transform="translate(54)">
    <path d="M0,0v640M0,640H-33M0,576H-33M0,512H-33M0,384H-33M0,256H-33M0,0H-33" style="stroke: black; stroke-width: 1;"></path>
    <g font-family="Arial" font-size="28" space="preserve" fill="black" text-anchor="start">
     <text dy=".4em" transform="translate(8,640)">
      0
     </text>
     <text dy=".4em" transform="translate(8,576)">
      20
     </text>
     <text dy=".4em" transform="translate(8,512)">
      40
     </text>
     <text dy=".4em" transform="translate(8,384)">
      80
     </text>
     <text dy=".4em" transform="translate(8,256)">
      120
     </text>
     <text dy=".4em" transform="translate(8)">
      200
     </text>
    </g>
   </g>
  </g>
  <g transform="translate(283,4)" font-family="Arial" font-size="40" space="preserve">
   <text fill="black" text-anchor="middle" dy=".4em" transform="translate(317,25)">
    User contours, CJUST
   </text>
  </g>
 </g>
</svg>
